X:1
T:Title
%%score { ( 1 3 ) | 2 }
L:1/8
Q:1/4=112
M:3/4
K:A
V:1 treble nm="Grand Piano"
V:3 treble 
V:2 bass 
V:1
 [Ec]2 [DB]2 [CA]2 | [A,FA]2 [A,EG]2 [A,DF]2 | [A,CE]6 | [A,EA]2 [DEG]2 [CEA]2 | [Ec]6 | [EB]6 | %6
w: Alex~Van~Alystune * *||||||
 [Ec]2 [DB]2 [CA]2 | [A,FA]2 [A,EG]2 [A,DF]2 | [A,CE]6 | [G,E]2 [B,FA]2 [B,EG]2 | F6 | [G,E]6 | %12
w: ||||||
 [G,E]2 [A,EF]2 [B,EG]2 | A6 | B2 A2 B2 | [Ec]6 | e2 c2 [EA]2 | [DF]2 [EG]2 [EA]2 | [Ec]6 | [EB]6 | %20
w: ||||||||
 [CA]2 [EG]2 [DF]2 | [CE]2 [EA]2 [Ec]2 | [DB]6 | [CA]6 |] %24
w: ||||
V:2
 [A,,A,]2 [A,,A,]2 [A,,A,]2 | D,2 D,2 D,2 | A,,6 | C,2 B,,2 A,,2 | [E,A,]6 | [E,G,]6 | %6
 [A,,A,]2 [A,,A,]2 [A,,A,]2 | D,2 D,2 D,2 | A,,6 | C,2 ^D,2 E,2 | A,,4 B,,2 | E,6 | E,2 E,2 D,2 | %13
 C,4 A,2 | [G,DE]2 [A,CE]2 [E,G,E]2 | [A,,A,]6 | [A,CE]2 [A,E]2 [C,A,]2 | [D,A,]2 [D,B,]2 [C,A,]2 | %18
 [E,A,]6 | [E,G,]6 | [A,,A,]2 [A,,A,]2 [A,,A,]2 | [A,,A,]2 [C,A,]2 [A,,A,]2 | [E,G,]6 | [A,,A,]6 |] %24
V:3
 x6 | x6 | x6 | x6 | x6 | x6 | x6 | x6 | x6 | x6 | [CE]4 [B,^D]2 | x6 | x6 | [A,E]4 C2 | x6 | x6 | %16
 x6 | x6 | x6 | x6 | x6 | x6 | x6 | x6 |] %24

